X: 36
T: JIG: Cordal
C: C: Trad.; S: Various
C: Set Leaders: Sophie, Anton, Tania
Z: [Unedited]; JACKB at The Session
N: https://thesession.org/members/26966/sets/99413
R: Jig
M: 6/8
L: 1/8
Q: 3/8=116
K: Amix
|:BAF E3|FEF DFA|BAF DFA|B2A Bcd|
BAF E3|FEF DFA|d2f edc|B2A BAB:||
|:d2e fed|c2d ecA|d2e fed|f2e fga|
d2e fed|c2d ecA|dfd cec|B2A Bcd:||

